X:2
T:The Raven
C:Trad.
R:Jig
M:6/8
L:1/8
Z:Transcribed 27 November, 2017 by Stephen Beitzel
K:D
[| {g}B{d}B{e}B {g}f2 a- | age {g}f3 | {g}Bf{e}f {g}fed | {g}cde {g}dcA |
{g}B{d}B{e}B {g}f2 a- | age {g}f2 g | {ag}a3 {f}g3 | {g}fed {gef}e2 f |]
[|: {g}Bf{e}f {g}fed | {g}cde {g}dc{d}B | {g}B{d}B{e}B {g}dcd | {g}ede {g}f2 {e}f |
{g}Bf{e}f {g}fed | {g}cde {g}dcd | {g}f3 {g}edc |1 {Gdc}d3 {gef}e2 f :|2 {g}!fermata!B6 |]